!!!!SEGMENT: pl-wn--sd-xvi-qu-273--017_gomolka-mikolaj--placz-sprawiedliwy-i-skarge-moje.krn
!!!cenid: 15xx:222
!!!COM: Gomółka, Mikołaj
!!!COM-rismid: pe30013343
!!!CDT: ~1535->1591/04/30
!!!CNT: Polish
!!!GTL: Melodiae na psalterz polski
!!!OTL: XVII. Płacz sprawiedliwy i skargę moję
!!!PDT: 1580
!!!AGN: Sacred
!!!SMS-siglum: PL-Wn
!!!SMS-shelfmark: SD XVI.Qu.273
!!!SMS-shelfwork: 017 G
!!!NIFC-rismid:
!!!ONB-nifc: Melodiae na psalterz polski
**kern	**text	**text	**kern	**text	**text	**kern	**text	**text	**kern	**text	**text
*part4	*part4	*part4	*part3	*part3	*part3	*part2	*part2	*part2	*part1	*part1	*part1
*staff4	*staff4	*staff4	*staff3	*staff3	*staff3	*staff2	*staff2	*staff2	*staff1	*staff1	*staff1
*clefF4	*	*	*clefC4	*	*	*clefC3	*	*	*clefC1	*	*
*k[]	*	*	*k[]	*	*	*k[]	*	*	*k[]	*	*
*a:	*	*	*a:	*	*	*a:	*	*	*a:	*	*
*M4/4	*	*	*M4/4	*	*	*M4/4	*	*	*M4/4	*	*
*met(C|)	*	*	*met(C|)	*	*	*met(C|)	*	*	*met(C|)	*	*
*M4/2	*	*	*M4/2	*	*	*M4/2	*	*	*M4/2	*	*
*>[A,A,B]	*>[A,A,B]	*>[A,A,B]	*>[A,A,B]	*>[A,A,B]	*>[A,A,B]	*>[A,A,B]	*>[A,A,B]	*>[A,A,B]	*>[A,A,B]	*>[A,A,B]	*>[A,A,B]
*>A	*>A	*>A	*>A	*>A	*>A	*>A	*>A	*>A	*>A	*>A	*>A
*xywh-19r:517,5175,5060,1467	*	*	*xywh-19r:546,3881,5079,1332	*	*	*xywh-19r:604,2664,5041,1381	*	*	*xywh-19r:595,1042,5079,1651	*	*
=1-	=1-	=1-	=1-	=1-	=1-	=1-	=1-	=1-	=1-	=1-	=1-
1A\	Płácz	Przy-	1c#\X	Płácz	Przy-	1e\	Płácz	Przy-	1a\	Płácz	Przy-
2D/	sprá-	-puść	2.d\	sprá-	-puść	2.f\	sprá-	-puść	2a\	sprá-	-puść
2D/	-wie-	przed	.	.	.	.	.	.	2.a\	-wie-	prz(ed)
.	.	.	4e\	-wie-	prz(ed)	4e\	-wie-	prz(ed)	.	.	.
=2	-=2-	=2-	=2-	=2-	=2-	=2-	=2-	=2-	=2-	=2-	=2-
4D/	-dli-	świę-	2f\	-dli-	świę	2d\	-dli-	świę-	.	.	.
4E\	.	.	.	.	.	.	.	.	4g/	.	.
4F\	.	.	2f\	-wy,	y	2d\	(-wy)	(-tą)	4a\	-dli-	świę-
4G\	.	.	.	.	.	.	.	.	4b\	.	.
2A\	-wy,	-tą	2e\	y	ob-	2c/	y	ob-	2cc\	-wy,	(-tą)
2A\	y	ob-	2c\	.	.	2e\	.	.	2cc\	y	ob-
=3-	=3-	=3-	=3-	=3-	=3-	=3-	=3-	=3-	=3-	=3-	=3-
2D/	skár-	-licz-	2.d\	skár-	-licz-	2f\	skár-	-li(cz-	2b\	skár-	-li(cz-
2D/	-gę	(-ność)	.	.	.	2f\	-gę	-ność)	1a\	-gę	-ność)
.	.	.	4c\	-gę	-n(ość)	.	.	.	.	.	.
1E\	mo-	swo-	1B\	mo-	swo-	2.e\	mo-	swo-	.	.	.
.	.	.	.	.	.	.	.	.	2g\	mo-	swo-
.	.	.	.	.	.	4d\	.	.	.	.	.
=4-	=4-	=4-	=4-	=4-	=4-	=4-	=4-	=4-	=4-	=4-	=4-
1AA/	-ię,	-ię:	1A\	-ię,	-ię:	1c#\X	-ię,	-ię:	1a\	-ię,	-ię:
=:|!-	=:|!-	=:|!-	=:|!-	=:|!-	=:|!-	=:|!-	=:|!-	=:|!-	=:|!-	=:|!-	=:|!-
*>B	*	*	*>B	*	*	*>B	*	*	*>B	*	*
1FF/	U-	.	1A\	U-	.	2.f\	U-	.	1cc\	U-	.
.	.	.	.	.	.	4e\	.	.	.	.	.
=5-	=5-	=5-	=5-	=5-	=5-	=5-	=5-	=5-	=5-	=5-	=5-
2BB-/X	-słysz,	.	2F/	-słysz,	.	4d\	-słysz,	.	2b-\X	-słysz,	.
.	.	.	.	.	.	4c\	.	.	.	.	.
2GG/	o	.	2G/	o	.	1d\	o	.	2b-\	o	.
1AA/	sę-	.	1E/	sę-	.	.	.	.	1a\	sę-	.
.	.	.	.	.	.	2c/	sę-	.	.	.	.
=6-	=6-	=6-	=6-	=6-	=6-	=6-	=6-	=6-	=6-	=6-	=6-
2D/	-dźia	.	2F/	-dźia	.	2d\	-dźia	.	2a\	-dźia	.
2GG/	nie-	.	2G/	nie-	.	2d\	nie-	.	2b\	nie-	.
!!LO:PB:g=original
*xywh-19v:1269,5226,5110,1446	*	*	*xywh-19v:1220,3937,5120,1260	*	*	*xywh-19v:1201,2666,5061,1299	*	*	*xywh-19v:1259,1142,5052,1583	*	*
2C/	-ná-	.	2G/	-ná-	.	2e\	-ná-	.	2.cc\	-ná-	.
2AA/	-gá-	.	2A\	-gá-	.	2e\	-gá-	.	.	.	.
.	.	.	.	.	.	.	.	.	8b\L	-gá-	.
.	.	.	.	.	.	.	.	.	8a\J	.	.
=7-	=7-	=7-	=7-	=7-	=7-	=7-	=7-	=7-	=7-	=7-	=7-
1E\	-nio-	.	1B\	-nio-	.	1e\	-nio-	.	4g/	-nio-	.
.	.	.	.	.	.	.	.	.	2a\	.	.
.	.	.	.	.	.	.	.	.	4g/	.	.
1AA/	-ny,	.	1c#\X	-ny,	.	1e\	-ny,	.	1a\	-ny,	.
=8-	=8-	=8-	=8-	=8-	=8-	=8-	=8-	=8-	=8-	=8-	=8-
1D\	Ust	.	2d\	Ust	.	2A/	Ust	.	1f#/X	Ust	.
.	.	.	2A/	.	.	4d\	nie-	.	.	.	.
.	.	.	.	.	.	4c\	.	.	.	.	.
2GG/	nie-	.	2B\	nie-	.	4B/	.	.	2.g\	nie-	.
.	.	.	.	.	.	4A/	.	.	.	.	.
2C/	-o-	.	2c\	-o-	.	2G/	-o-	.	.	.	.
.	.	.	.	.	.	.	.	.	4a\	-o-	.
=9-	=9-	=9-	=9-	=9-	=9-	=9-	=9-	=9-	=9-	=9-	=9-
2BB-/X	-błu-	.	4d\	-błu-	.	2G/	-błu	.	2b-\X	-błu-	.
.	.	.	4c\	.	.	.	.	.	.	.	.
2GG/	-dnych	.	4d\	-dnych	.	2G/	-dnych	.	2b-\	-dnych	.
.	.	.	4e\	.	.	.	.	.	.	.	.
!	!	!	!	!	!	!LO:SIC:v=rozstrzelone litery	!	!	!	!	!
2.D/	głos	.	2.f\	głos	.	2.F/	głos	.	2.a\	głos	.
4E\	.	.	4e\	.	.	4G/	.	.	4g\	.	.
=10-	=10-	=10-	=10-	=10-	=10-	=10-	=10-	=10-	=10-	=10-	=10-
4F\	nie-	.	4d\	nie-	.	4A/	nie-	.	2f/	nie-	.
4G\	.	.	4c\	.	.	4B/	.	.	.	.	.
2A\	-zmy-	.	4c\	-zmy-	.	4c/	-zmy-	.	4e/	-zmy-	.
.	.	.	8B\L	.	.	4d\	.	.	4f/	.	.
.	.	.	8A\J	.	.	.	.	.	.	.	.
1E\	-ślo-	.	1B\	-ślo-	.	2.e\	-ślo-	.	4g#X/	-ślo-	.
.	.	.	.	.	.	.	.	.	2a\	.	.
.	.	.	.	.	.	4d\	.	.	4g#/	.	.
=11-	=11-	=11-	=11-	=11-	=11-	=11-	=11-	=11-	=11-	=11-	=11-
0AA/ll	-ny.	.	0A\ll	-ny.	.	0c\ll	ny.	.	0a\ll	-ny.	.
==	==	==	==	==	==	==	==	==	==	==	==
*-	*-	*-	*-	*-	*-	*-	*-	*-	*-	*-	*-
!!!RDF**kern: l = terminal long
!!!system-decoration: s1,s2,s3,s4
!!!ENC: Leszek Kubiak
!!!END: data 2020-02-04
!!!URL-scan: https://polona.pl/item/melodiae-na-psalterz-polski,Nzk3MTM4ODQ/54 Scan on Polona
!!!IIIF: https://polona.pl/iiif/item/Nzk3MTM4ODQ/manifest.json
